src/assets/MinusCircle.svg

<svg viewBox="0 0 24 24" fill="none" xmlns="http://www.w3.org/2000/svg">
<path fill-rule="evenodd" clip-rule="evenodd" d="M12 24C18.6274 24 24 18.6274 24 12C24 5.37258 18.6274 0 12 0C5.37258 0 0 5.37258 0 12C0 18.6274 5.37258 24 12 24ZM13.14 13.26H10.88H7.75C7.33579 13.26 7 12.9242 7 12.51V11.75C7 11.3358 7.33579 11 7.75 11H10.88H13.14H16.25C16.6642 11 17 11.3358 17 11.75V12.51C17 12.9242 16.6642 13.26 16.25 13.26H13.14Z" fill="currentColor"/>
</svg>

<svg xmlns="http://www.w3.org/2000/svg" fill="none" viewBox="0 0 24 24"><path fill="currentColor" fill-rule="evenodd" d="M12 24c6.627 0 12-5.373 12-12S18.627 0 12 0 0 5.373 0 12s5.373 12 12 12m1.14-10.74H7.75a.75.75 0 0 1-.75-.75v-.76a.75.75 0 0 1 .75-.75h8.5a.75.75 0 0 1 .75.75v.76a.75.75 0 0 1-.75.75z" clip-rule="evenodd"/></svg>
